X: 46
T:Sheehan's Reel
M:C|
L:1/8
R:Reel
K:G
G2BG DGBG|ABcA BGGB|~A3B cBAG|FGAG FDEF|!
G2BG DGBd|cBAB cdef|gedB c2Bc|dBcA BGG2:|!
|:g2bg dgbg|gbag fdde|f2af dfaf|gbag fdef|!
g2bg dgbg|gbag fdef|gedB c2Bc|dBcA BGG2:|]!
